IMG/deafults/logo-name.svg

<svg xmlns="http://www.w3.org/2000/svg" width="342px" height="67px" fill="none" viewBox="10.82 3.86 267.9 60.01">
<path d="M18.0555 9.862H50.5555V12.7687H18.0555V9.862Z" fill="#F22929"/>
<path d="M52.3611 15.1128H17.8028C17.342 15.106 16.8873 15.0024 16.4662 14.8081C16.045 14.6139 15.6661 14.333 15.3523 13.9826C15.0385 13.6321 14.7962 13.2192 14.6402 12.7689C14.4842 12.3185 14.4176 11.84 14.4445 11.3622C14.4422 10.4114 14.7878 9.49515 15.4113 8.79887C16.0347 8.10259 16.8895 7.67825 17.8028 7.61169H52.3611C52.84 7.61169 53.2992 7.41412 53.6379 7.06244C53.9765 6.71076 54.1667 6.23377 54.1667 5.73642C54.1667 5.23907 53.9765 4.76208 53.6379 4.4104C53.2992 4.05872 52.84 3.86115 52.3611 3.86115H17.8028C15.9315 3.92921 14.1588 4.74945 12.8586 6.14887C11.5583 7.54829 10.8322 9.41749 10.8334 11.3622C10.8159 11.6683 10.8159 11.9751 10.8334 12.2811C10.816 12.4306 10.816 12.5817 10.8334 12.7312V56.3688C10.8322 58.3136 11.5583 60.1828 12.8586 61.5822C14.1588 62.9816 15.9315 63.8019 17.8028 63.8699H52.3611C52.84 63.8699 53.2992 63.6724 53.6379 63.3207C53.9765 62.969 54.1667 62.492 54.1667 61.9947V17.1193C54.1677 16.6091 53.9816 16.1177 53.6462 15.745C53.3108 15.3722 52.8513 15.1462 52.3611 15.1128V15.1128Z" fill="#2D2D2D"/>
<path d="M87.224 33.9972C89.56 34.2852 91.288 35.0372 92.408 36.2532C93.56 37.4372 94.136 38.9092 94.136 40.6692C94.136 42.4292 93.48 44.0932 92.168 45.6612C90.888 47.2292 89.24 48.4452 87.224 49.3092C86.328 49.6612 85.144 49.9172 83.672 50.0772C82.232 50.2372 80.744 50.3172 79.208 50.3172C76.648 50.3172 74.024 50.0772 71.336 49.5972C70.856 49.5012 70.344 49.2612 69.8 48.8772C69.288 48.4932 69.032 47.9332 69.032 47.1972C69 44.2532 68.888 40.1572 68.696 34.9092L68.648 32.2692C68.52 28.1732 68.456 24.9572 68.456 22.6212C68.456 22.2052 68.696 21.7252 69.176 21.1812C69.688 20.6052 70.296 20.2852 71 20.2212C71.416 20.2212 71.816 20.2052 72.2 20.1732C75.816 19.8212 78.232 19.6452 79.448 19.6452C81.848 19.6452 83.96 19.8852 85.784 20.3652C87.64 20.8132 89.176 21.6452 90.392 22.8612C90.84 23.3732 91.208 24.0292 91.496 24.8292C91.784 25.5972 91.928 26.3492 91.928 27.0852C91.96 28.6532 91.544 30.0932 90.68 31.4052C89.848 32.7172 88.696 33.5812 87.224 33.9972ZM79.736 23.7252C78.648 23.7252 77.512 23.7892 76.328 23.9172C75.176 24.0452 74.2 24.2052 73.4 24.3972L73.688 33.4692L75.416 33.4212C78.2 33.1332 80.248 32.8932 81.56 32.7012C82.392 32.5092 83.208 32.1412 84.008 31.5972C84.808 31.0212 85.464 30.4292 85.976 29.8212C86.52 29.1812 86.792 28.7012 86.792 28.3812C86.792 27.9012 86.696 27.4212 86.504 26.9412C86.312 26.4292 86.104 26.0612 85.88 25.8372C85.016 25.0052 84.136 24.4452 83.24 24.1572C82.344 23.8692 81.176 23.7252 79.736 23.7252ZM73.832 46.0932C75.464 46.3172 77.016 46.4292 78.488 46.4292C81.72 46.4292 84.264 46.0132 86.12 45.1812C88.008 44.3172 88.952 42.6852 88.952 40.2852C88.952 39.3252 88.232 38.5252 86.792 37.8852C85.352 37.2452 83.8 36.9252 82.136 36.9252C81.016 36.9252 79.592 37.0532 77.864 37.3092C76.488 37.5012 75.144 37.6292 73.832 37.6932C73.896 39.6132 73.928 40.8292 73.928 41.3412C73.928 42.3332 73.912 43.0852 73.88 43.5972L73.832 46.0932ZM170.294 22.2372C170.294 20.8612 171.302 20.1732 173.318 20.1732C174.182 20.1732 175.83 20.2052 178.262 20.2692C180.95 20.3972 182.982 20.4612 184.358 20.4612C185.478 20.4612 186.838 20.3972 188.438 20.2692C189.526 20.2052 190.214 20.1732 190.502 20.1732C192.262 20.2372 193.75 20.5572 194.966 21.1332C195.318 21.2932 195.606 21.4852 195.83 21.7092C196.054 21.9332 196.166 22.3012 196.166 22.8132C196.166 23.5172 195.942 24.1252 195.494 24.6372C195.046 25.1172 194.502 25.3572 193.862 25.3572C193.158 25.3572 192.134 25.2612 190.79 25.0692C189.606 24.8452 188.566 24.7332 187.67 24.7332C186.806 24.7332 186.15 24.7492 185.702 24.7812C185.606 25.8372 185.558 28.3652 185.558 32.3652C185.558 37.1332 185.702 41.9652 185.99 46.8612L186.086 48.2532C186.086 49.5652 185.334 50.2212 183.83 50.2212C182.646 50.2212 181.846 49.9492 181.43 49.4052C181.014 48.8292 180.806 47.9652 180.806 46.8132C180.806 44.5412 180.742 41.7092 180.614 38.3172C180.486 35.5012 180.422 33.5012 180.422 32.3172C180.422 31.5172 180.518 29.0692 180.71 24.9732L175.094 25.0212C173.302 25.0212 172.054 24.8612 171.35 24.5412C170.646 24.1892 170.294 23.4212 170.294 22.2372Z" fill="#F22929"/>
<path d="M117.583 34.8132C117.839 35.2612 118.047 35.9172 118.207 36.7812C118.367 37.6132 118.447 38.3652 118.447 39.0372C118.447 40.2852 118.175 42.0612 117.631 44.3652C115.423 48.3972 112.159 50.4132 107.839 50.4132C106.239 50.4132 104.607 49.8852 102.943 48.8292C101.279 47.7732 100.127 46.5572 99.4873 45.1812C98.6233 42.4292 98.1913 40.6852 98.1913 39.9492C98.1913 38.6692 98.4633 37.3092 99.0073 35.8692C99.5833 34.4292 100.303 33.1812 101.167 32.1252C101.711 31.3892 102.687 30.7652 104.095 30.2532C105.503 29.7092 106.783 29.4372 107.935 29.4372C110.175 29.4372 112.079 29.8692 113.647 30.7332C115.215 31.5652 116.527 32.9252 117.583 34.8132ZM113.407 42.5412C113.567 42.1252 113.647 41.0532 113.647 39.3252C113.647 38.3972 113.471 37.4852 113.119 36.5892C112.799 35.6932 112.319 34.9252 111.679 34.2852C111.615 34.2212 111.439 34.1252 111.151 33.9972C110.863 33.8372 110.463 33.6932 109.951 33.5652C109.471 33.4052 108.911 33.3252 108.271 33.3252C106.479 33.3252 105.167 34.0452 104.335 35.4852C103.503 36.9252 103.087 38.5572 103.087 40.3812C103.087 40.7012 103.167 41.3092 103.327 42.2052C103.519 43.1012 103.679 43.6612 103.807 43.8852C103.903 44.1092 104.143 44.4292 104.527 44.8452C104.943 45.2292 105.439 45.5812 106.015 45.9012C106.623 46.1892 107.247 46.3332 107.887 46.3332C109.327 46.3332 110.479 45.9972 111.343 45.3252C112.207 44.6212 112.895 43.6932 113.407 42.5412ZM142.05 34.8132C142.306 35.2612 142.514 35.9172 142.674 36.7812C142.834 37.6132 142.914 38.3652 142.914 39.0372C142.914 39.9012 142.818 40.8612 142.626 41.9172C142.434 42.9732 142.258 43.7892 142.098 44.3652C139.89 48.3972 136.626 50.4132 132.306 50.4132C130.706 50.4132 129.074 49.8852 127.41 48.8292C125.746 47.7732 124.594 46.5572 123.954 45.1812C123.09 42.4612 122.658 40.7172 122.658 39.9492C122.658 38.6692 122.93 37.3092 123.474 35.8692C124.05 34.4292 124.77 33.1812 125.634 32.1252C126.21 31.3892 127.202 30.7652 128.61 30.2532C130.018 29.7092 131.298 29.4372 132.45 29.4372C134.69 29.4372 136.578 29.8692 138.114 30.7332C139.682 31.5652 140.994 32.9252 142.05 34.8132ZM137.874 42.5412C138.034 42.2212 138.114 41.1492 138.114 39.3252C138.114 38.3972 137.938 37.4852 137.586 36.5892C137.266 35.6932 136.786 34.9252 136.146 34.2852C136.082 34.2212 135.906 34.1252 135.618 33.9972C135.33 33.8372 134.93 33.6932 134.418 33.5652C133.938 33.4052 133.378 33.3252 132.738 33.3252C130.946 33.3252 129.634 34.0452 128.802 35.4852C127.97 36.9252 127.554 38.5572 127.554 40.3812C127.554 40.6692 127.65 41.2612 127.842 42.1572C128.034 43.0532 128.178 43.6292 128.274 43.8852C128.53 44.3332 129.042 44.8612 129.81 45.4692C130.61 46.0452 131.474 46.3332 132.402 46.3332C133.842 46.3332 134.978 45.9972 135.81 45.3252C136.674 44.6212 137.362 43.6932 137.874 42.5412ZM151.209 50.4132C150.569 50.4132 150.025 50.3012 149.577 50.0772C149.129 49.8532 148.857 49.6132 148.761 49.3572C148.409 48.0772 148.233 46.3972 148.233 44.3172C148.233 40.4772 148.297 37.3572 148.425 34.9572C148.553 32.1092 148.617 29.3732 148.617 26.7492C148.617 25.9812 148.521 24.8612 148.329 23.3892C148.297 23.1332 148.249 22.6692 148.185 21.9972C148.121 21.3252 148.089 20.7012 148.089 20.1252C148.089 19.4212 148.329 18.8612 148.809 18.4452C149.321 18.0292 149.977 17.8212 150.777 17.8212C151.417 17.8212 151.929 18.0292 152.313 18.4452C152.729 18.8292 152.937 19.3572 152.937 20.0292C152.937 21.0532 152.969 22.4932 153.033 24.3492C153.097 26.0772 153.129 27.3732 153.129 28.2372C153.129 29.1972 153.097 30.4772 153.033 32.0772C152.969 33.0372 152.937 33.7412 152.937 34.1892C152.937 35.5972 152.953 36.7652 152.985 37.6932C154.169 36.5092 155.721 35.1172 157.641 33.5172C159.561 31.9172 161.049 30.7972 162.105 30.1572C163.225 29.4852 163.961 29.1492 164.313 29.1492C164.985 29.1492 165.561 29.2932 166.041 29.5812C166.521 29.8692 166.761 30.2852 166.761 30.8292C166.761 31.3732 166.681 31.8052 166.521 32.1252C166.361 32.4452 166.073 32.7652 165.657 33.0852L159.465 37.5972C160.169 37.9492 160.761 38.3972 161.241 38.9412C161.753 39.4852 162.265 40.1572 162.777 40.9572C163.865 42.7492 164.729 44.0612 165.369 44.8932C166.041 45.7252 166.649 46.1412 167.193 46.1412L168.393 46.0932C168.617 46.0932 168.809 46.2212 168.969 46.4772C169.161 46.7332 169.257 47.1012 169.257 47.5812C169.257 48.3172 168.889 48.9092 168.153 49.3572C167.449 49.8052 166.649 50.0292 165.753 50.0292C164.505 50.0292 163.401 49.5492 162.441 48.5892C161.481 47.5972 160.569 46.2692 159.705 44.6052C158.457 42.2372 157.225 40.8292 156.009 40.3812L152.937 42.8772L153.129 48.1092C153.129 48.9412 152.905 49.5332 152.457 49.8852C152.041 50.2372 151.625 50.4132 151.209 50.4132ZM218.224 34.8132C218.48 35.2612 218.688 35.9172 218.848 36.7812C219.008 37.6132 219.088 38.3652 219.088 39.0372C219.088 40.2852 218.816 42.0612 218.272 44.3652C216.064 48.3972 212.8 50.4132 208.48 50.4132C206.88 50.4132 205.248 49.8852 203.584 48.8292C201.92 47.7732 200.768 46.5572 200.128 45.1812C199.264 42.4292 198.832 40.6852 198.832 39.9492C198.832 38.6692 199.104 37.3092 199.648 35.8692C200.224 34.4292 200.944 33.1812 201.808 32.1252C202.352 31.3892 203.328 30.7652 204.736 30.2532C206.144 29.7092 207.424 29.4372 208.576 29.4372C210.816 29.4372 212.72 29.8692 214.288 30.7332C215.856 31.5652 217.168 32.9252 218.224 34.8132ZM214.048 42.5412C214.208 42.1252 214.288 41.0532 214.288 39.3252C214.288 38.3972 214.112 37.4852 213.76 36.5892C213.44 35.6932 212.96 34.9252 212.32 34.2852C212.256 34.2212 212.08 34.1252 211.792 33.9972C211.504 33.8372 211.104 33.6932 210.592 33.5652C210.112 33.4052 209.552 33.3252 208.912 33.3252C207.12 33.3252 205.808 34.0452 204.976 35.4852C204.144 36.9252 203.728 38.5572 203.728 40.3812C203.728 40.7012 203.808 41.3092 203.968 42.2052C204.16 43.1012 204.32 43.6612 204.448 43.8852C204.544 44.1092 204.784 44.4292 205.168 44.8452C205.584 45.2292 206.08 45.5812 206.656 45.9012C207.264 46.1892 207.888 46.3332 208.528 46.3332C209.968 46.3332 211.12 45.9972 211.984 45.3252C212.848 44.6212 213.536 43.6932 214.048 42.5412ZM245.954 38.7972C246.146 38.0932 246.354 37.1332 246.578 35.9172C246.898 34.4772 247.154 33.3892 247.346 32.6532C247.538 31.9172 247.794 31.2932 248.114 30.7812C248.466 30.2052 248.77 29.8212 249.026 29.6292C249.314 29.4372 249.618 29.3412 249.938 29.3412C251.602 29.3412 252.434 29.9812 252.434 31.2612C252.434 31.9012 252.178 33.1012 251.666 34.8612C249.97 39.9812 248.754 43.9492 248.018 46.7652C247.698 47.9492 247.218 48.8612 246.578 49.5012C245.938 50.1092 245.074 50.4132 243.986 50.4132C243.442 50.4132 242.882 50.1572 242.306 49.6452C241.762 49.1012 241.314 48.4452 240.962 47.6772L240.434 46.3812C239.538 44.1092 238.866 42.3652 238.418 41.1492C238.002 39.9012 237.73 38.7812 237.602 37.7892L237.17 39.3252C236.402 42.0772 235.602 44.6372 234.77 47.0052C234.354 48.2212 233.842 49.1012 233.234 49.6452C232.626 50.1572 231.842 50.4132 230.882 50.4132C230.306 50.4132 229.794 50.2852 229.346 50.0292C228.93 49.7732 228.53 49.3412 228.146 48.7332C227.634 47.9012 227.138 46.7812 226.658 45.3732C226.21 43.9652 225.554 41.7732 224.69 38.7972C224.274 37.5172 223.89 36.1732 223.538 34.7652C223.186 33.3252 223.01 32.3172 223.01 31.7412C223.01 31.0692 223.186 30.5412 223.538 30.1572C223.89 29.7732 224.402 29.5812 225.074 29.5812C225.938 29.5812 226.546 29.7572 226.898 30.1092C227.25 30.4292 227.57 30.9252 227.858 31.5972C228.018 32.7492 228.37 34.3812 228.914 36.4932L229.97 41.0052C230.034 41.3572 230.226 42.0932 230.546 43.2132L230.93 44.6052C231.634 43.1012 232.226 41.6612 232.706 40.2852C233.186 38.9092 233.714 37.2132 234.29 35.1972C234.322 35.0692 234.642 33.9652 235.25 31.8852C235.666 31.2132 236.034 30.7172 236.354 30.3972C236.674 30.0452 236.994 29.8692 237.314 29.8692C237.954 29.8692 238.498 30.0772 238.946 30.4932C239.426 30.8772 239.778 31.3572 240.002 31.9332C240.386 33.1812 240.722 34.3172 241.01 35.3412C241.138 35.7572 241.426 36.7652 241.874 38.3652C242.354 39.9332 242.786 41.2612 243.17 42.3492C243.554 43.4372 243.874 44.2052 244.13 44.6532L245.954 38.7972ZM256.066 33.3252C255.81 33.1332 255.602 32.9412 255.442 32.7492C255.282 32.5252 255.202 32.1412 255.202 31.5972C255.202 30.9892 255.41 30.5252 255.826 30.2052C256.274 29.8532 256.786 29.6772 257.362 29.6772C258.482 29.6772 259.442 29.9652 260.242 30.5412C261.074 31.1172 261.682 31.9172 262.066 32.9412C262.77 31.6292 263.666 30.7332 264.754 30.2532C265.842 29.7412 267.346 29.4852 269.266 29.4852C270.034 29.4852 270.818 29.7252 271.618 30.2052C272.45 30.6532 273.202 31.2132 273.874 31.8852C274.418 32.5892 274.882 33.4692 275.266 34.5252C275.65 35.5492 275.842 36.4772 275.842 37.3092C275.842 37.7892 275.81 38.5732 275.746 39.6612C275.682 40.8132 275.65 41.7252 275.65 42.3972C275.65 44.6372 276.082 46.0132 276.946 46.5252C277.074 46.5892 277.314 46.6692 277.666 46.7652C278.018 46.8612 278.274 46.9572 278.434 47.0532C278.626 47.1492 278.722 47.2932 278.722 47.4852C278.754 48.2532 278.466 48.8932 277.858 49.4052C277.282 49.8852 276.578 50.1252 275.746 50.1252C274.498 50.1252 273.522 49.7892 272.818 49.1172C272.114 48.4452 271.618 47.4212 271.33 46.0452C271.17 45.5332 271.09 44.7812 271.09 43.7892C271.09 43.2452 271.122 42.3652 271.186 41.1492C271.282 40.1892 271.33 39.1652 271.33 38.0772C271.33 36.9572 271.01 35.9812 270.37 35.1492C269.73 34.2852 268.85 33.8532 267.73 33.8532C267.058 33.8532 266.354 34.0612 265.618 34.4772C264.882 34.8612 264.37 35.3412 264.082 35.9172C263.602 36.9092 263.282 37.9172 263.122 38.9412C262.738 40.9252 262.546 42.8292 262.546 44.6532C262.546 45.1012 262.578 45.9652 262.642 47.2452C262.642 47.3412 262.642 47.5812 262.642 47.9652C262.642 48.3172 262.594 48.6532 262.498 48.9732C262.434 49.2932 262.306 49.5812 262.114 49.8372C261.986 49.9652 261.746 50.0932 261.394 50.2212C261.042 50.3492 260.738 50.4132 260.482 50.4132C260.034 50.4132 259.474 50.2212 258.802 49.8372C258.13 49.4532 257.73 49.0212 257.602 48.5412L257.554 47.8692C257.554 47.6132 257.586 47.2292 257.65 46.7172C258.034 44.4772 258.226 42.5252 258.226 40.8612C258.226 40.1252 258.21 39.5652 258.178 39.1812L258.13 36.9732C258.13 36.3012 257.938 35.6612 257.554 35.0532C257.17 34.4132 256.674 33.8372 256.066 33.3252Z" fill="#2D2D2D"/>
</svg>

<svg xmlns="http://www.w3.org/2000/svg" width="342" height="67" fill="none" viewBox="10.82 3.86 267.9 60.01"><path d="M18.055 9.862h32.5v2.907h-32.5V9.862Z" fill="#F22929"/><path d="M52.361 15.113H17.803a3.305 3.305 0 0 1-1.337-.305 3.418 3.418 0 0 1-1.114-.825 3.572 3.572 0 0 1-.712-1.214 3.67 3.67 0 0 1-.196-1.407 3.83 3.83 0 0 1 .967-2.563 3.559 3.559 0 0 1 2.392-1.187H52.36c.479 0 .938-.198 1.277-.55.339-.351.529-.828.529-1.326 0-.497-.19-.974-.53-1.326a1.772 1.772 0 0 0-1.276-.549H17.803a7.103 7.103 0 0 0-4.944 2.288 7.656 7.656 0 0 0-2.026 5.213 8.048 8.048 0 0 0 0 .92c-.017.149-.017.3 0 .45v43.637a7.656 7.656 0 0 0 2.026 5.213 7.103 7.103 0 0 0 4.944 2.288H52.36c.479 0 .938-.198 1.277-.55.339-.351.529-.828.529-1.325V17.119a2.05 2.05 0 0 0-.52-1.374 1.903 1.903 0 0 0-1.286-.632Z" fill="#2D2D2D"/><path d="M87.224 33.997c2.336.288 4.064 1.04 5.184 2.256 1.152 1.184 1.728 2.656 1.728 4.416 0 1.76-.656 3.424-1.968 4.992-1.28 1.568-2.928 2.784-4.944 3.648-.896.352-2.08.608-3.552.768-1.44.16-2.928.24-4.464.24-2.56 0-5.184-.24-7.872-.72-.48-.096-.992-.336-1.536-.72-.512-.384-.768-.944-.768-1.68-.032-2.944-.144-7.04-.336-12.288l-.048-2.64c-.128-4.096-.192-7.312-.192-9.648 0-.416.24-.896.72-1.44.512-.576 1.12-.896 1.824-.96.416 0 .816-.016 1.2-.048 3.616-.352 6.032-.528 7.248-.528 2.4 0 4.512.24 6.336.72 1.856.448 3.392 1.28 4.608 2.496.448.512.816 1.168 1.104 1.968a6.4 6.4 0 0 1 .432 2.256 7.408 7.408 0 0 1-1.248 4.32c-.832 1.312-1.984 2.176-3.456 2.592Zm-7.488-10.272c-1.088 0-2.224.064-3.408.192-1.152.128-2.128.288-2.928.48l.288 9.072 1.728-.048c2.784-.288 4.832-.528 6.144-.72.832-.192 1.648-.56 2.448-1.104.8-.576 1.456-1.168 1.968-1.776.544-.64.816-1.12.816-1.44 0-.48-.096-.96-.288-1.44-.192-.512-.4-.88-.624-1.104-.864-.832-1.744-1.392-2.64-1.68-.896-.288-2.064-.432-3.504-.432Zm-5.904 22.368c1.632.224 3.184.336 4.656.336 3.232 0 5.776-.416 7.632-1.248 1.888-.864 2.832-2.496 2.832-4.896 0-.96-.72-1.76-2.16-2.4-1.44-.64-2.992-.96-4.656-.96-1.12 0-2.544.128-4.272.384-1.376.192-2.72.32-4.032.384.064 1.92.096 3.136.096 3.648 0 .992-.016 1.744-.048 2.256l-.048 2.496Zm96.462-23.856c0-1.376 1.008-2.064 3.024-2.064.864 0 2.512.032 4.944.096 2.688.128 4.72.192 6.096.192 1.12 0 2.48-.064 4.08-.192 1.088-.064 1.776-.096 2.064-.096 1.76.064 3.248.384 4.464.96.352.16.64.352.864.576.224.224.336.592.336 1.104 0 .704-.224 1.312-.672 1.824-.448.48-.992.72-1.632.72-.704 0-1.728-.096-3.072-.288-1.184-.224-2.224-.336-3.12-.336a29.9 29.9 0 0 0-1.968.048c-.096 1.056-.144 3.584-.144 7.584 0 4.768.144 9.6.432 14.496l.096 1.392c0 1.312-.752 1.968-2.256 1.968-1.184 0-1.984-.272-2.4-.816-.416-.576-.624-1.44-.624-2.592 0-2.272-.064-5.104-.192-8.496-.128-2.816-.192-4.816-.192-6 0-.8.096-3.248.288-7.344l-5.616.048c-1.792 0-3.04-.16-3.744-.48-.704-.352-1.056-1.12-1.056-2.304Z" fill="#F22929"/><path d="M117.583 34.813c.256.448.464 1.104.624 1.968.16.832.24 1.584.24 2.256 0 1.248-.272 3.024-.816 5.328-2.208 4.032-5.472 6.048-9.792 6.048-1.6 0-3.232-.528-4.896-1.584-1.664-1.056-2.816-2.272-3.456-3.648-.864-2.752-1.296-4.496-1.296-5.232 0-1.28.272-2.64.816-4.08.576-1.44 1.296-2.688 2.16-3.744.544-.736 1.52-1.36 2.928-1.872 1.408-.544 2.688-.816 3.84-.816 2.24 0 4.144.432 5.712 1.296 1.568.832 2.88 2.192 3.936 4.08Zm-4.176 7.728c.16-.416.24-1.488.24-3.216 0-.928-.176-1.84-.528-2.736a6.12 6.12 0 0 0-1.44-2.304c-.064-.064-.24-.16-.528-.288-.288-.16-.688-.304-1.2-.432-.48-.16-1.04-.24-1.68-.24-1.792 0-3.104.72-3.936 2.16-.832 1.44-1.248 3.072-1.248 4.896 0 .32.08.928.24 1.824.192.896.352 1.456.48 1.68.096.224.336.544.72.96a7.68 7.68 0 0 0 1.488 1.056 4.328 4.328 0 0 0 1.872.432c1.44 0 2.592-.336 3.456-1.008.864-.704 1.552-1.632 2.064-2.784Zm28.643-7.728c.256.448.464 1.104.624 1.968.16.832.24 1.584.24 2.256 0 .864-.096 1.824-.288 2.88-.192 1.056-.368 1.872-.528 2.448-2.208 4.032-5.472 6.048-9.792 6.048-1.6 0-3.232-.528-4.896-1.584-1.664-1.056-2.816-2.272-3.456-3.648-.864-2.72-1.296-4.464-1.296-5.232 0-1.28.272-2.64.816-4.08.576-1.44 1.296-2.688 2.16-3.744.576-.736 1.568-1.36 2.976-1.872 1.408-.544 2.688-.816 3.84-.816 2.24 0 4.128.432 5.664 1.296 1.568.832 2.88 2.192 3.936 4.08Zm-4.176 7.728c.16-.32.24-1.392.24-3.216 0-.928-.176-1.84-.528-2.736a6.12 6.12 0 0 0-1.44-2.304c-.064-.064-.24-.16-.528-.288-.288-.16-.688-.304-1.2-.432-.48-.16-1.04-.24-1.68-.24-1.792 0-3.104.72-3.936 2.16-.832 1.44-1.248 3.072-1.248 4.896 0 .288.096.88.288 1.776.192.896.336 1.472.432 1.728.256.448.768.976 1.536 1.584.8.576 1.664.864 2.592.864 1.44 0 2.576-.336 3.408-1.008.864-.704 1.552-1.632 2.064-2.784Zm13.335 7.872c-.64 0-1.184-.112-1.632-.336-.448-.224-.72-.464-.816-.72-.352-1.28-.528-2.96-.528-5.04 0-3.84.064-6.96.192-9.36.128-2.848.192-5.584.192-8.208 0-.768-.096-1.888-.288-3.36-.032-.256-.08-.72-.144-1.392a19.83 19.83 0 0 1-.096-1.872c0-.704.24-1.264.72-1.68.512-.416 1.168-.624 1.968-.624.64 0 1.152.208 1.536.624.416.384.624.912.624 1.584 0 1.024.032 2.464.096 4.32.064 1.728.096 3.024.096 3.888 0 .96-.032 2.24-.096 3.84a35.41 35.41 0 0 0-.096 2.112c0 1.408.016 2.576.048 3.504 1.184-1.184 2.736-2.576 4.656-4.176 1.92-1.6 3.408-2.72 4.464-3.36 1.12-.672 1.856-1.008 2.208-1.008.672 0 1.248.144 1.728.432.48.288.72.704.72 1.248s-.08.976-.24 1.296c-.16.32-.448.64-.864.96l-6.192 4.512c.704.352 1.296.8 1.776 1.344.512.544 1.024 1.216 1.536 2.016 1.088 1.792 1.952 3.104 2.592 3.936.672.832 1.28 1.248 1.824 1.248l1.2-.048c.224 0 .416.128.576.384.192.256.288.624.288 1.104 0 .736-.368 1.328-1.104 1.776-.704.448-1.504.672-2.4.672-1.248 0-2.352-.48-3.312-1.44-.96-.992-1.872-2.32-2.736-3.984-1.248-2.368-2.48-3.776-3.696-4.224l-3.072 2.496.192 5.232c0 .832-.224 1.424-.672 1.776-.416.352-.832.528-1.248.528Zm67.015-15.6c.256.448.464 1.104.624 1.968.16.832.24 1.584.24 2.256 0 1.248-.272 3.024-.816 5.328-2.208 4.032-5.472 6.048-9.792 6.048-1.6 0-3.232-.528-4.896-1.584-1.664-1.056-2.816-2.272-3.456-3.648-.864-2.752-1.296-4.496-1.296-5.232 0-1.28.272-2.64.816-4.08.576-1.44 1.296-2.688 2.16-3.744.544-.736 1.52-1.36 2.928-1.872 1.408-.544 2.688-.816 3.84-.816 2.24 0 4.144.432 5.712 1.296 1.568.832 2.88 2.192 3.936 4.08Zm-4.176 7.728c.16-.416.24-1.488.24-3.216 0-.928-.176-1.84-.528-2.736a6.12 6.12 0 0 0-1.44-2.304c-.064-.064-.24-.16-.528-.288-.288-.16-.688-.304-1.2-.432-.48-.16-1.04-.24-1.68-.24-1.792 0-3.104.72-3.936 2.16-.832 1.44-1.248 3.072-1.248 4.896 0 .32.08.928.24 1.824.192.896.352 1.456.48 1.68.096.224.336.544.72.96a7.68 7.68 0 0 0 1.488 1.056 4.328 4.328 0 0 0 1.872.432c1.44 0 2.592-.336 3.456-1.008.864-.704 1.552-1.632 2.064-2.784Zm31.906-3.744c.192-.704.4-1.664.624-2.88.32-1.44.576-2.528.768-3.264.192-.736.448-1.36.768-1.872.352-.576.656-.96.912-1.152.288-.192.592-.288.912-.288 1.664 0 2.496.64 2.496 1.92 0 .64-.256 1.84-.768 3.6-1.696 5.12-2.912 9.088-3.648 11.904-.32 1.184-.8 2.096-1.44 2.736-.64.608-1.504.912-2.592.912-.544 0-1.104-.256-1.68-.768a6.695 6.695 0 0 1-1.344-1.968l-.528-1.296a266.821 266.821 0 0 1-2.016-5.232c-.416-1.248-.688-2.368-.816-3.36l-.432 1.536a122.785 122.785 0 0 1-2.4 7.68c-.416 1.216-.928 2.096-1.536 2.64-.608.512-1.392.768-2.352.768-.576 0-1.088-.128-1.536-.384-.416-.256-.816-.688-1.2-1.296-.512-.832-1.008-1.952-1.488-3.36-.448-1.408-1.104-3.6-1.968-6.576a60.61 60.61 0 0 1-1.152-4.032c-.352-1.44-.528-2.448-.528-3.024 0-.672.176-1.2.528-1.584.352-.384.864-.576 1.536-.576.864 0 1.472.176 1.824.528.352.32.672.816.96 1.488.16 1.152.512 2.784 1.056 4.896l1.056 4.512c.064.352.256 1.088.576 2.208l.384 1.392a45.86 45.86 0 0 0 1.776-4.32c.48-1.376 1.008-3.072 1.584-5.088.032-.128.352-1.232.96-3.312.416-.672.784-1.168 1.104-1.488.32-.352.64-.528.96-.528.64 0 1.184.208 1.632.624.48.384.832.864 1.056 1.44.384 1.248.72 2.384 1.008 3.408.128.416.416 1.424.864 3.024.48 1.568.912 2.896 1.296 3.984s.704 1.856.96 2.304l1.824-5.856Zm10.112-5.472a3.69 3.69 0 0 1-.624-.576c-.16-.224-.24-.608-.24-1.152 0-.608.208-1.072.624-1.392.448-.352.96-.528 1.536-.528 1.12 0 2.08.288 2.88.864.832.576 1.44 1.376 1.824 2.4.704-1.312 1.6-2.208 2.688-2.688 1.088-.512 2.592-.768 4.512-.768.768 0 1.552.24 2.352.72a9.634 9.634 0 0 1 2.256 1.68c.544.704 1.008 1.584 1.392 2.64.384 1.024.576 1.952.576 2.784 0 .48-.032 1.264-.096 2.352a52.095 52.095 0 0 0-.096 2.736c0 2.24.432 3.616 1.296 4.128.128.064.368.144.72.24s.608.192.768.288c.192.096.288.24.288.432.032.768-.256 1.408-.864 1.92-.576.48-1.28.72-2.112.72-1.248 0-2.224-.336-2.928-1.008-.704-.672-1.2-1.696-1.488-3.072-.16-.512-.24-1.264-.24-2.256 0-.544.032-1.424.096-2.64.096-.96.144-1.984.144-3.072 0-1.12-.32-2.096-.96-2.928-.64-.864-1.52-1.296-2.64-1.296-.672 0-1.376.208-2.112.624-.736.384-1.248.864-1.536 1.44-.48.992-.8 2-.96 3.024-.384 1.984-.576 3.888-.576 5.712 0 .448.032 1.312.096 2.592v.72c0 .352-.048.688-.144 1.008-.064.32-.192.608-.384.864-.128.128-.368.256-.72.384s-.656.192-.912.192c-.448 0-1.008-.192-1.68-.576-.672-.384-1.072-.816-1.2-1.296l-.048-.672c0-.256.032-.64.096-1.152.384-2.24.576-4.192.576-5.856 0-.736-.016-1.296-.048-1.68l-.048-2.208c0-.672-.192-1.312-.576-1.92a6.89 6.89 0 0 0-1.488-1.728Z" fill="#2D2D2D"/></svg>
